X: 33
T: Mason's Apron, The
Z: Pierre DEHOUX
S: https://thesession.org/tunes/74#setting54246
R: reel
M: 4/4
L: 1/8
K: Amaj
|:a2~A2 cBAF|EFAB cABc|d2B2 BcBA|GABc defg|
a2~A2 cBAF|EFAB cABc|dcde fgaf|1 edcB A4 :|2 edcB A3B||
|:cAeA fAeA|cAeA fedc|dBfB aBfB|defg afed|
cAeA fAeA|cAeA fedc|dcde fgaf|edcB A3B:|

%-------------------- TUNE SEPARATOR --------------------%

